X:97
T:Yellow John
M:6/8
L:1/8
K:D Major
DED AFA|BGB AFD|DED AFA|B2c d3|!
DED AFA|BGB AFA|dfd edc|B2c d3:|!
dfd edc|dcB AFA|dfd edc|B2c d3|!
dfd edc|dcB AFD|DED AFA|B2c d3|!
dfd edc|dcB AFA|dfd edc|B2c d2f|!
afd edc|dcB AFD|DED AFA|B2c d3|]!
